ix/check_bulk.svg

<svg viewBox="0 0 24 24" fill="none" xmlns="http://www.w3.org/2000/svg" height="1em" width="1em">
  <path d="M15 22c-.41 0-.75-.34-.75-.75V2.75c0-.41.34-.75.75-.75s.75.34.75.75v18.5c0 .41-.34.75-.75.75Z" fill="#292D32"/>
  <path opacity=".4" d="M6 20h6V4H6C3.79 4 2 5.79 2 8v8c0 2.21 1.79 4 4 4Zm12 0h-3V4h3c2.21 0 4 1.79 4 4v8c0 2.21-1.79 4-4 4Z" fill="#292D32"/>
  <path d="M7 16.25c-.41 0-.75-.34-.75-.75v-7c0-.41.34-.75.75-.75s.75.34.75.75v7c0 .41-.34.75-.75.75Z" fill="#292D32"/>
</svg>

<svg viewBox="0 0 24 24" fill="none" xmlns="http://www.w3.org/2000/svg" height="1em" width="1em">
  <path d="M15 22C14.59 22 14.25 21.66 14.25 21.25V2.75C14.25 2.34 14.59 2 15 2C15.41 2 15.75 2.34 15.75 2.75V21.25C15.75 21.66 15.41 22 15 22Z" fill="#292D32"/>
  <path opacity="0.4" d="M6 20H12V4H6C3.79 4 2 5.79 2 8V16C2 18.21 3.79 20 6 20Z" fill="#292D32"/>
  <path opacity="0.4" d="M18 20H15V4H18C20.21 4 22 5.79 22 8V16C22 18.21 20.21 20 18 20Z" fill="#292D32"/>
  <path d="M7 16.25C6.59 16.25 6.25 15.91 6.25 15.5V8.5C6.25 8.09 6.59 7.75 7 7.75C7.41 7.75 7.75 8.09 7.75 8.5V15.5C7.75 15.91 7.41 16.25 7 16.25Z" fill="#292D32"/>
</svg>
